X:1
T: Stepping Stones
N:
C:Brian Jenkins
S:
A:
O:
R:
M:3/4
K:Am
I:speed 150
%W: A
% voice 1 (1 lines, 21 notes)
K:Am
M:3/4
L:1/16
E4 |A8 c2 d2 |e8 d2 e2 |c8 B2 c2 |A8 E4 |A8 B2 c2 |d6 c2 d4 |e12|e8 E4 |
%W:
% voice 1 (1 lines, 20 notes)
A8 c2 d2 |e8 d2 e2 |d8 c4 |B8 c2 d2 |e6 c2 A4 |A8 G4 |A12|A8 c2 d2 |
%W: B
% voice 1 (1 lines, 23 notes)
e8 e2 e2 |d6 c2 B4 |c8 c2 c2 |B6 A2 ^G4 |A6 A2 A2 A2 |a6 g2 f2 e2 |f12|f8 f4 |
%W:
% voice 1 (1 lines, 19 notes)
e8 e4 |d8 e2 d2 |c6 d2 e4 |f8 A2 B2 |c6 E2 c4 |B6 A2 G4 |A12|A8 ||
